X:138
M:6/8
L:1/8
Q:3/8=70
K:F
c|f2 c' afc|dgf edc|f2 c' a/b/c'f|ac'c'/b/ c'2a|b>c'd' def|gaf edc|
df/d/f/d/ eg/e/g/e/|cfe f2 z/c/|f2 c' afc|dgf e>dc/B/|Acf d/c/B/A/G/F/|
|:A2c BGE|F2A GEC|FFF GGG|AcA G3|A2c BGE|F2A GEC|
|:(3c/d/e/|fc/f/a/f/ g/f/e/d/c/B/|A/c/f/c/a/f/ g/f/e/d/c/B/|A/F/c/A/g/e/
d/c/B/A/G/F/|

